svgs/charts/presentation-chart-03.svg

<svg width="24" height="24" viewBox="0 0 24 24" fill="none" xmlns="http://www.w3.org/2000/svg">
<path d="M12 16V21M12 16L18 21M12 16L6 21M8 7V12M12 9V12M16 11V12M22 3H2M3 3H21V11.2C21 12.8802 21 13.7202 20.673 14.362C20.3854 14.9265 19.9265 15.3854 19.362 15.673C18.7202 16 17.8802 16 16.2 16H7.8C6.11984 16 5.27976 16 4.63803 15.673C4.07354 15.3854 3.6146 14.9265 3.32698 14.362C3 13.7202 3 12.8802 3 11.2V3Z" stroke="#1C1D20" stroke-width="1.5" stroke-linecap="round" stroke-linejoin="round"/>
</svg>

<svg fill="none" xmlns="http://www.w3.org/2000/svg" viewBox="0 0 24 24"><path d="M12 16v5m0-5 6 5m-6-5-6 5M8 7v5m4-3v3m4-1v1m6-9H2m1 0h18v8.2c0 1.68 0 2.52-.327 3.162a3 3 0 0 1-1.311 1.311C18.72 16 17.88 16 16.2 16H7.8c-1.68 0-2.52 0-3.162-.327a3 3 0 0 1-1.311-1.311C3 13.72 3 12.88 3 11.2V3Z" stroke="#1C1D20" stroke-width="1.5" stroke-linecap="round" stroke-linejoin="round"/></svg>
